src/sources/forus-webshop/resources/_webshop-common/assets/img/icon-auth/pair-me-app.svg

<svg width="102" height="102" viewBox="0 0 102 102" fill="none" xmlns="http://www.w3.org/2000/svg">
<rect x="1" y="1" width="100" height="100" rx="50" fill="white"/>
<rect x="1" y="1" width="100" height="100" rx="50" stroke="#E5E5E5"/>
<g filter="url(#filter0_d_10_1580)">
<rect x="20" y="31" width="62" height="24" rx="4" fill="white"/>
<rect x="20" y="31" width="62" height="24" rx="4" stroke="#315EFD" stroke-width="2"/>
<path d="M33.1626 46.5977H30.962L29.5361 43.8682L28.9588 44.21V46.5977H27V39.459H28.9588V42.5596C29.0575 42.3675 29.2565 42.0632 29.5558 41.6465L31.0706 39.459H33.2021L30.9275 42.6572L33.1626 46.5977Z" fill="#315EFD"/>
<path d="M39.1723 43.8193C39.1723 44.7243 38.9256 45.4307 38.4322 45.9385C37.9421 46.443 37.2546 46.6953 36.3697 46.6953C35.5211 46.6953 34.8451 46.4365 34.3419 45.9189C33.8419 45.4014 33.5919 44.7015 33.5919 43.8193C33.5919 42.9176 33.8369 42.2178 34.327 41.7197C34.8205 41.2184 35.5112 40.9678 36.3993 40.9678C36.9487 40.9678 37.4339 41.0833 37.8549 41.3145C38.2759 41.5456 38.5999 41.8776 38.8269 42.3105C39.0571 42.7402 39.1723 43.2432 39.1723 43.8193ZM35.5507 43.8193C35.5507 44.2946 35.6148 44.6576 35.7431 44.9082C35.8714 45.1556 36.0869 45.2793 36.3895 45.2793C36.6888 45.2793 36.8993 45.1556 37.021 44.9082C37.146 44.6576 37.2085 44.2946 37.2085 43.8193C37.2085 43.3473 37.146 42.9909 37.021 42.75C36.896 42.5091 36.6822 42.3887 36.3796 42.3887C36.0836 42.3887 35.8714 42.5091 35.7431 42.75C35.6148 42.9876 35.5507 43.3441 35.5507 43.8193Z" fill="#315EFD"/>
<path d="M43.6326 46.6953C43.3498 46.6953 43.0965 46.6497 42.8728 46.5586C42.6491 46.4642 42.4271 46.2965 42.2067 46.0557H42.1179C42.1771 46.443 42.2067 46.6839 42.2067 46.7783V49H40.2775V41.0654H41.8465L42.1179 41.7686H42.2067C42.5653 41.2347 43.0603 40.9678 43.6919 40.9678C44.3103 40.9678 44.7954 41.2217 45.1474 41.7295C45.4994 42.2373 45.6753 42.9339 45.6753 43.8193C45.6753 44.7113 45.4911 45.4144 45.1227 45.9287C44.7576 46.4398 44.2609 46.6953 43.6326 46.6953ZM42.9863 42.4668C42.7034 42.4668 42.5044 42.5677 42.3893 42.7695C42.2774 42.9681 42.2166 43.2643 42.2067 43.6582V43.8096C42.2067 44.2848 42.2709 44.6283 42.3991 44.8398C42.5274 45.0514 42.7297 45.1572 43.006 45.1572C43.2527 45.1572 43.432 45.0531 43.5438 44.8447C43.6557 44.6331 43.7116 44.2848 43.7116 43.7998C43.7116 43.3245 43.6557 42.9844 43.5438 42.7793C43.432 42.571 43.2461 42.4668 42.9863 42.4668Z" fill="#315EFD"/>
<path d="M50.1357 46.6953C49.8528 46.6953 49.5995 46.6497 49.3759 46.5586C49.1522 46.4642 48.9302 46.2965 48.7098 46.0557H48.621C48.6802 46.443 48.7098 46.6839 48.7098 46.7783V49H46.7806V41.0654H48.3496L48.621 41.7686H48.7098C49.0683 41.2347 49.5634 40.9678 50.1949 40.9678C50.8133 40.9678 51.2985 41.2217 51.6505 41.7295C52.0024 42.2373 52.1784 42.9339 52.1784 43.8193C52.1784 44.7113 51.9942 45.4144 51.6258 45.9287C51.2607 46.4398 50.764 46.6953 50.1357 46.6953ZM49.4894 42.4668C49.2065 42.4668 49.0075 42.5677 48.8923 42.7695C48.7805 42.9681 48.7196 43.2643 48.7098 43.6582V43.8096C48.7098 44.2848 48.7739 44.6283 48.9022 44.8398C49.0305 45.0514 49.2328 45.1572 49.5091 45.1572C49.7558 45.1572 49.9351 45.0531 50.0469 44.8447C50.1587 44.6331 50.2147 44.2848 50.2147 43.7998C50.2147 43.3245 50.1587 42.9844 50.0469 42.7793C49.9351 42.571 49.7492 42.4668 49.4894 42.4668Z" fill="#315EFD"/>
<path d="M55.9825 46.6953C55.0517 46.6953 54.328 46.4512 53.8116 45.9629C53.2984 45.4714 53.0419 44.7731 53.0419 43.8682C53.0419 42.9339 53.2803 42.2178 53.7573 41.7197C54.2343 41.2184 54.9152 40.9678 55.8 40.9678C56.6421 40.9678 57.2917 41.1859 57.7489 41.6221C58.2094 42.055 58.4397 42.68 58.4397 43.4971V44.3467H54.9908C55.004 44.6559 55.1174 44.8984 55.3313 45.0742C55.5484 45.25 55.8428 45.3379 56.2144 45.3379C56.5533 45.3379 56.8641 45.307 57.147 45.2451C57.4332 45.18 57.7424 45.071 58.0746 44.918V46.29C57.772 46.443 57.4595 46.5488 57.1371 46.6074C56.8148 46.666 56.4299 46.6953 55.9825 46.6953ZM55.8691 42.2666C55.6421 42.2666 55.4513 42.3382 55.2967 42.4814C55.1454 42.6214 55.0566 42.8428 55.0303 43.1455H56.6881C56.6815 42.8786 56.6042 42.6654 56.4562 42.5059C56.3115 42.3464 56.1158 42.2666 55.8691 42.2666Z" fill="#315EFD"/>
<path d="M61.4593 46.5977H59.5301V39H61.4593V46.5977Z" fill="#315EFD"/>
<path d="M65.4954 46.6953C64.5645 46.6953 63.8408 46.4512 63.3244 45.9629C62.8113 45.4714 62.5547 44.7731 62.5547 43.8682C62.5547 42.9339 62.7932 42.2178 63.2701 41.7197C63.7471 41.2184 64.428 40.9678 65.3128 40.9678C66.1549 40.9678 66.8045 41.1859 67.2618 41.6221C67.7223 42.055 67.9525 42.68 67.9525 43.4971V44.3467H64.5036C64.5168 44.6559 64.6303 44.8984 64.8441 45.0742C65.0612 45.25 65.3556 45.3379 65.7273 45.3379C66.0661 45.3379 66.3769 45.307 66.6598 45.2451C66.946 45.18 67.2552 45.071 67.5874 44.918V46.29C67.2848 46.443 66.9723 46.5488 66.6499 46.6074C66.3276 46.666 65.9427 46.6953 65.4954 46.6953ZM65.3819 42.2666C65.1549 42.2666 64.9641 42.3382 64.8095 42.4814C64.6582 42.6214 64.5694 42.8428 64.5431 43.1455H66.2009C66.1944 42.8786 66.1171 42.6654 65.969 42.5059C65.8243 42.3464 65.6286 42.2666 65.3819 42.2666Z" fill="#315EFD"/>
<path d="M72.5708 46.5977V43.5801C72.5708 43.2122 72.5165 42.9355 72.408 42.75C72.3027 42.5612 72.1317 42.4668 71.8948 42.4668C71.5692 42.4668 71.334 42.5954 71.1893 42.8525C71.0445 43.1097 70.9722 43.5508 70.9722 44.1758V46.5977H69.043V41.0654H70.4985L70.7403 41.749H70.8537C71.0182 41.4886 71.2452 41.2933 71.5346 41.1631C71.8274 41.0329 72.1629 40.9678 72.5412 40.9678C73.1596 40.9678 73.6398 41.1452 73.9819 41.5C74.3273 41.8548 74.5 42.3545 74.5 42.999V46.5977H72.5708Z" fill="#315EFD"/>
</g>
<path d="M61.4884 52.3221L62.6122 49.8095C63.074 48.842 64.2281 48.4242 65.2034 48.8715C66.1782 49.3185 66.6132 50.4644 66.1802 51.4445L65.0447 54.0148C64.3897 55.4976 64.3345 57.1761 64.8909 58.6986L64.9195 58.7769L62.118 55.9785C61.154 55.0158 60.9018 53.5511 61.4884 52.3221Z" fill="#F7D3CA"/>
<path d="M65.2107 58.3174L54.444 47.5638C53.6912 46.8121 52.4708 46.8121 51.7181 47.5638C50.9654 48.3156 50.9654 49.5345 51.7181 50.2862L57.6784 56.2391C56.9221 55.5474 55.7472 55.5669 55.0149 56.2983C54.2622 57.0501 54.2622 58.269 55.0149 59.0207L55.0142 59.0214C54.2615 58.2697 53.041 58.2697 52.2883 59.0214C51.5492 59.7596 51.5364 60.9479 52.2488 61.7024C51.4934 60.9908 50.3037 61.0036 49.5645 61.7418C48.8118 62.4936 48.8118 63.7125 49.5645 64.4642L54.319 69.213C56.7113 71.6023 60.5922 71.5946 62.9751 69.1961L65.2276 66.9288C67.5973 64.5435 67.5898 60.6935 65.2107 58.3174Z" fill="#F9E0DA"/>
<defs>
<filter id="filter0_d_10_1580" x="11" y="26" width="80" height="42" filterUnits="userSpaceOnUse" color-interpolation-filters="sRGB">
<feFlood flood-opacity="0" result="BackgroundImageFix"/>
<feColorMatrix in="SourceAlpha" type="matrix" values="0 0 0 0 0 0 0 0 0 0 0 0 0 0 0 0 0 0 127 0" result="hardAlpha"/>
<feOffset dy="4"/>
<feGaussianBlur stdDeviation="4"/>
<feColorMatrix type="matrix" values="0 0 0 0 0 0 0 0 0 0 0 0 0 0 0 0 0 0 0.06 0"/>
<feBlend mode="normal" in2="BackgroundImageFix" result="effect1_dropShadow_10_1580"/>
<feBlend mode="normal" in="SourceGraphic" in2="effect1_dropShadow_10_1580" result="shape"/>
</filter>
</defs>
</svg>

<svg width="102" height="102" fill="none" xmlns="http://www.w3.org/2000/svg"><rect x="1" y="1" width="100" height="100" rx="50" fill="#fff"/><rect x="1" y="1" width="100" height="100" rx="50" stroke="#E5E5E5"/><g filter="url(#a)"><rect x="20" y="31" width="62" height="24" rx="4" fill="#fff"/><rect x="20" y="31" width="62" height="24" rx="4" stroke="#315EFD" stroke-width="2"/><path d="M33.163 46.598h-2.201l-1.426-2.73-.577.342v2.388H27v-7.139h1.959v3.1c.099-.191.297-.496.597-.912l1.515-2.188h2.131l-2.274 3.198 2.235 3.94ZM39.172 43.82c0 .904-.246 1.61-.74 2.118-.49.505-1.177.757-2.062.757-.849 0-1.525-.258-2.028-.776-.5-.518-.75-1.217-.75-2.1 0-.901.245-1.601.735-2.1.494-.5 1.184-.751 2.072-.751.55 0 1.035.115 1.456.346.42.232.745.564.972.996.23.43.345.933.345 1.51Zm-3.621 0c0 .475.064.838.192 1.088.128.248.344.371.646.371.3 0 .51-.123.632-.37.125-.251.188-.614.188-1.09 0-.472-.063-.828-.188-1.069-.125-.24-.339-.361-.641-.361-.296 0-.509.12-.637.361-.128.238-.192.594-.192 1.07ZM43.633 46.695a2 2 0 0 1-.76-.136c-.224-.095-.446-.262-.666-.503h-.09c.06.387.09.628.09.722V49h-1.93v-7.935h1.57l.27.704h.09c.358-.534.853-.801 1.485-.801.618 0 1.103.254 1.455.761.352.508.528 1.205.528 2.09 0 .892-.184 1.595-.552 2.11-.365.51-.862.766-1.49.766Zm-.647-4.228c-.283 0-.482.1-.597.303-.112.198-.172.494-.182.888v.152c0 .475.064.818.192 1.03.128.211.33.317.607.317a.566.566 0 0 0 .538-.312c.112-.212.168-.56.168-1.045 0-.475-.056-.816-.168-1.02-.112-.209-.298-.313-.558-.313ZM50.136 46.695c-.283 0-.537-.045-.76-.136-.224-.095-.446-.262-.666-.503h-.089c.06.387.089.628.089.722V49h-1.93v-7.935h1.57l.271.704h.089c.358-.534.853-.801 1.485-.801.618 0 1.103.254 1.456.761.351.508.527 1.205.527 2.09 0 .892-.184 1.595-.552 2.11-.365.51-.862.766-1.49.766Zm-.647-4.228c-.282 0-.481.1-.597.303-.111.198-.172.494-.182.888v.152c0 .475.064.818.192 1.03.129.211.33.317.607.317a.566.566 0 0 0 .538-.312c.112-.212.168-.56.168-1.045 0-.475-.056-.816-.168-1.02-.112-.209-.298-.313-.558-.313ZM55.983 46.695c-.931 0-1.655-.244-2.171-.732-.514-.492-.77-1.19-.77-2.095 0-.934.238-1.65.715-2.148.477-.502 1.158-.752 2.043-.752.842 0 1.492.218 1.949.654.46.433.69 1.058.69 1.875v.85h-3.448c.013.309.126.551.34.727.217.176.512.264.883.264.34 0 .65-.031.933-.093.286-.065.595-.174.928-.327v1.372a3.428 3.428 0 0 1-.938.317 6.553 6.553 0 0 1-1.154.088Zm-.114-4.428a.81.81 0 0 0-.572.214c-.152.14-.24.362-.267.664h1.658c-.007-.266-.084-.48-.232-.64-.145-.159-.34-.238-.587-.238ZM61.46 46.598h-1.93V39h1.93v7.598ZM65.495 46.695c-.93 0-1.654-.244-2.17-.732-.514-.492-.77-1.19-.77-2.095 0-.934.238-1.65.715-2.148.477-.502 1.158-.752 2.043-.752.842 0 1.492.218 1.949.654.46.433.69 1.058.69 1.875v.85h-3.448c.013.309.126.551.34.727.217.176.512.264.883.264.34 0 .65-.031.933-.093.286-.065.595-.174.927-.327v1.372a3.428 3.428 0 0 1-.937.317 6.552 6.552 0 0 1-1.155.088Zm-.113-4.428a.81.81 0 0 0-.573.214c-.15.14-.24.362-.266.664h1.658c-.007-.266-.084-.48-.232-.64-.145-.159-.34-.238-.587-.238ZM72.57 46.598V43.58c0-.368-.053-.645-.162-.83-.105-.189-.276-.283-.513-.283-.326 0-.561.128-.706.386-.144.257-.217.698-.217 1.323v2.422h-1.929v-5.533h1.456l.241.684h.114c.164-.26.391-.456.68-.586.293-.13.629-.195 1.007-.195.619 0 1.099.177 1.44.532.346.355.519.855.519 1.499v3.599h-1.93Z" fill="#315EFD"/></g><path d="m61.488 52.322 1.124-2.513a1.964 1.964 0 0 1 2.591-.938 1.96 1.96 0 0 1 .977 2.573l-1.135 2.57a6.267 6.267 0 0 0-.154 4.685l.028.078-2.801-2.799a3.212 3.212 0 0 1-.63-3.656Z" fill="#F7D3CA"/><path d="M65.21 58.317 54.445 47.564a1.93 1.93 0 0 0-2.726 0 1.923 1.923 0 0 0 0 2.722l5.96 5.953a1.93 1.93 0 0 0-2.663.06 1.923 1.923 0 0 0 0 2.722 1.93 1.93 0 0 0-2.727 0 1.923 1.923 0 0 0-.04 2.681 1.929 1.929 0 0 0-2.683.04 1.923 1.923 0 0 0 0 2.722l4.754 4.749a6.114 6.114 0 0 0 8.656-.017l2.253-2.267a6.096 6.096 0 0 0-.017-8.612Z" fill="#F9E0DA"/><defs><filter id="a" x="11" y="26" width="80" height="42" filterUnits="userSpaceOnUse" color-interpolation-filters="sRGB"><feFlood flood-opacity="0" result="BackgroundImageFix"/><feColorMatrix in="SourceAlpha" values="0 0 0 0 0 0 0 0 0 0 0 0 0 0 0 0 0 0 127 0" result="hardAlpha"/><feOffset dy="4"/><feGaussianBlur stdDeviation="4"/><feColorMatrix values="0 0 0 0 0 0 0 0 0 0 0 0 0 0 0 0 0 0 0.06 0"/><feBlend in2="BackgroundImageFix" result="effect1_dropShadow_10_1580"/><feBlend in="SourceGraphic" in2="effect1_dropShadow_10_1580" result="shape"/></filter></defs></svg>
